packages/heroicons/src/prism/file-excel.svg

<!-- Generated by IcoMoon.io -->
<svg version="1.1" xmlns="http://www.w3.org/2000/svg" width="16" height="16" viewBox="0 0 16 16">
<title>file-excel</title>
<path fill="#4a4a4a" d="M11.61 6h-2.114l-1.496 2.204-1.496-2.204h-2.114l2.534 3.788-2.859 4.212h3.935v-1.431h-0.784l0.784-1.172 1.741 2.603h2.194l-2.859-4.212 2.534-3.788zM14.341 3.579c-0.347-0.473-0.831-1.027-1.362-1.558s-1.085-1.015-1.558-1.362c-0.806-0.591-1.197-0.659-1.421-0.659h-7.75c-0.689 0-1.25 0.561-1.25 1.25v13.5c0 0.689 0.561 1.25 1.25 1.25h11.5c0.689 0 1.25-0.561 1.25-1.25v-9.75c0-0.224-0.068-0.615-0.659-1.421v0zM12.271 2.729c0.48 0.48 0.856 0.912 1.134 1.271h-2.406v-2.405c0.359 0.278 0.792 0.654 1.271 1.134v0zM14 14.75c0 0.136-0.114 0.25-0.25 0.25h-11.5c-0.135 0-0.25-0.114-0.25-0.25v-13.5c0-0.135 0.115-0.25 0.25-0.25 0 0 7.749-0 7.75 0v3.5c0 0.276 0.224 0.5 0.5 0.5h3.5v9.75z"></path>
</svg>

<svg xmlns="http://www.w3.org/2000/svg" aria-hidden="true" fill="currentColor" viewBox="0 0 16 16">
  <path d="M11.61 6H9.496L8 8.204 6.504 6H4.39l2.534 3.788L4.065 14H8v-1.431h-.784L8 11.397 9.741 14h2.194L9.076 9.788 11.61 6z"/>
  <path d="M14.341 3.579c-.347-.473-.831-1.027-1.362-1.558S11.894 1.006 11.421.659C10.615.068 10.224 0 10 0H2.25C1.561 0 1 .561 1 1.25v13.5c0 .689.561 1.25 1.25 1.25h11.5c.689 0 1.25-.561 1.25-1.25V5c0-.224-.068-.615-.659-1.421zm-2.07-.85c.48.48.856.912 1.134 1.271h-2.406V1.595c.359.278.792.654 1.271 1.134zM14 14.75c0 .136-.114.25-.25.25H2.25a.253.253 0 01-.25-.25V1.25c0-.135.115-.25.25-.25H10v3.5a.5.5 0 00.5.5H14v9.75z"/>
</svg>
